!!!!SEGMENT: pl-cz--iii-743--001-004_zebrowski-marcin-jozef--magnificat-quia-fecit.krn
!!!cenid: 17xx:2335
!!!COM: Żebrowski, Marcin Józef
!!!COM-rismID: pe30020322
!!!CDT: 1702-1770/06/29
!!!CNT: Polish
!!!OPR: Magnificat
!!!OTL: Quia fecit
!!!OMV: 004
!!!PDT:
!!!AGN:
!!!SMS-siglum: PL-CZ
!!!SMS-shelfmark: III-743
!!!SMS-shelfwork: 001-004 M
!!!SMS-variant: Organo PL-CZ III-743:25
!!!SMS-altvar: Organo PL-CZ III-743:29
!!!NIFC-rismSourceID: 300033495
!!!NIFC-rismChildID: 300033495
!!!NIFC-islandoraID: pl-cz:25228
!!!URL-pdf-islandora: https://repozytorium.nifc.pl/islandora/object/pl-cz%3A25228/datastream/PDF/view
!!!URL-scan: https://polish.musicsources.pl/pl/lokalizacje/galeria/rekopisy/1473 @EN{Scan on Polish Music Sources Website} @PL{Skany w portalu Dziedzictwo Muzyki Polskiej w otwartym dostępie}
!!!ONB-nifc: UWAGA: części Magnificatu: 1. Magnificat, 2. Et exultavit, 3. Quia respexit, 4. Quia fecit, 5. Et misericordia, 6. Fecit potentiam, 7. Deposuit potentes, 8. Esurientes implevit bonis, 9. Suscepit Israel, 10. Sicut locutus, 11. Gloria patri (razem z Sicut erat i Amen)
!!!OMD: Allegro
!!!AIN: 1 alto 1 bass 2 cor 1 organ 1 soprn 1 tenor 1 viola 2 violn
!!!key: C
**kern	**fba	**dynam	**kern	**dynam	**kern	**dynam	**kern	**dynam	**kern	**kern	**kern	**kern	**text	**kern	**kern
*part10	*part10	*part10	*part9	*part9	*part8	*part8	*part7	*part7	*part6	*part5	*part4	*part3	*part3	*part2	*part1
*staff10	*staff10	*	*staff9	*	*staff8	*	*staff7	*	*staff6	*staff5	*staff4	*staff3	*staff3	*staff2	*staff1
*I"Baſso pro Organo.	*	*	*I"Viola Oblige:	*	*I"Violino Secondo.	*	*I"Violino Primo	*	*I"Baſso.	*I"Tenore.	*I"Alto.	*I"Canto.	*	*I"Cornuo Secondo. ex g.	*I"Cornuo Primo. ex g
*I'org	*	*	*I'vla	*	*I'vl 2	*	*I'vl 1	*	*I'B	*I'T	*I'A	*I'S	*	*I'cor 2 in G	*I'cor 1 in G
*Iorgan	*	*	*Iviola	*	*Ivioln	*	*Ivioln	*	*Ibass	*Itenor	*Ialto	*Isoprn	*	*Icor	*Icor
*ICklav	*	*	*ICstr	*	*ICstr	*	*ICstr	*	*ICvox	*ICvox	*ICvox	*ICvox	*	*ICbras	*ICbras
*clefF4	*	*	*clefC3	*	*clefG2	*	*clefG2	*	*clefF4	*clefC4	*clefC3	*clefC1	*	*clefG2	*clefG2
*	*	*	*	*	*	*	*	*	*	*	*	*	*	*ITrd3c5	*ITrd3c5
*k[]	*	*	*k[]	*	*k[]	*	*k[]	*	*k[]	*k[]	*k[]	*k[]	*	*k[]	*k[]
*C:	*	*	*C:	*	*C:	*	*C:	*	*C:	*C:	*C:	*C:	*	*C:	*C:
*M2/4	*	*	*M2/4	*	*M2/4	*	*M2/4	*	*M2/4	*M2/4	*M2/4	*M2/4	*	*M2/4	*M2/4
!LO:TX:b:t=Solo	!	!	!	!	!	!	!	!	!	!	!	!LO:TX:t=P:problem=klucz wygląda jak C2	!	!LO:TX:t=Quia fecit tacet 2/4	!LO:TX:t=Quia Fecit\n Tacet. 2/4
!LO:TX:b:t=Allo.	!	!	!LO:TX:a:t=Allo.	!	!LO:TX:a:t=Allegro.	!	!LO:TX:a:t=Allo.	!	!LO:TX:a:t=Quia Fecit C&colon; S&colon; 2/4 Tacet	!LO:TX:a:t=Quia fecit\n Tacet 2/4	!LO:TX:a:t=Quia fecit 2/4 Tacet	!	!	!	!
8c\	.	.	8cc\	.	16c/LL	.	16e/LL	.	8ryy	8ryy	8ryy	8r	.	8ryy	8ryy
.	.	.	.	.	16d/JJ	.	16f/JJ	.	.	.	.	.	.	.	.
=1	=1	=1	=1	=1	=1	=1	=1	=1	=1	=1	=1	=1	=1	=1	=1
!	!	!	!	!	!	!	!	!	!	!	!	!LO:TX:a:t=15.	!	!	!
8C/L	.	.	8c/L	.	8e/L	.	8g/L	.	2ryy	2ryy	2ryy	0r	.	2ryy	2ryy
8C/	.	.	8c/	.	16c/L	.	16e/L	.	.	.	.	.	.	.	.
.	.	.	.	.	16d/JJ	.	16f/JJ	.	.	.	.	.	.	.	.
8C/	.	.	8c/	.	8e/L	.	8g/L	.	.	.	.	.	.	.	.
8C/J	6 4	.	8c/J	.	8f/J	.	8a/J	.	.	.	.	.	.	.	.
=2	=2	=2	=2	=2	=2	=2	=2	=2	=2	=2	=2	=2	=2	=2	=2
.	.	.	.	.	8qqg/	.	8qqb/	.	.	.	.	.	.	.	.
8C/L	6 4	.	8c/L	.	8f/L	.	8a/L	.	2ryy	2ryy	2ryy	.	.	2ryy	2ryy
8C/J	5 3	.	8c/J	.	8e/J	.	8g/J	.	.	.	.	.	.	.	.
16C\LL	.	.	16e\LL	.	(4ee\	.	(4gg\	.	.	.	.	.	.	.	.
16D\	.	.	16f\	.	.	.	.	.	.	.	.	.	.	.	.
16E\	.	.	16g\	.	.	.	.	.	.	.	.	.	.	.	.
16F\JJ	.	.	16a\JJ	.	.	.	.	.	.	.	.	.	.	.	.
=3	=3	=3	=3	=3	=3	=3	=3	=3	=3	=3	=3	=3	=3	=3	=3
!LO:TX:t=P:problem=mixed beam	!	!	!	!	!	!	!	!	!	!	!	!	!	!	!
8G\L	7	.	8B/L	.	16dd|>\LL)	.	16ff|>\LL)	.	2ryy	2ryy	2ryy	.	.	2ryy	2ryy
.	.	.	.	.	16cc|>\	.	16ee|>\	.	.	.	.	.	.	.	.
8GG/	.	.	8B/	.	16b|>\	.	16dd|>\	.	.	.	.	.	.	.	.
.	.	.	.	.	16a|>\JJ	.	16cc|>\JJ	.	.	.	.	.	.	.	.
8GG/	.	.	8B/	.	16g/LL	.	16b/LL	.	.	.	.	.	.	.	.
.	.	.	.	.	16f/	.	16a/	.	.	.	.	.	.	.	.
8GG/J	.	.	8B/J	.	16e/	.	16g/	.	.	.	.	.	.	.	.
.	.	.	.	.	16d/JJ	.	16f/JJ	.	.	.	.	.	.	.	.
=4	=4	=4	=4	=4	=4	=4	=4	=4	=4	=4	=4	=4	=4	=4	=4
8C/L	.	.	8G/L	.	(16c/LL	.	(16e/LL	.	2ryy	2ryy	2ryy	.	.	2ryy	2ryy
.	.	.	.	.	16d/J	.	16f/J)	.	.	.	.	.	.	.	.
8C/J	.	.	8G/J	.	8e/J)	.	8g/J	.	.	.	.	.	.	.	.
16C\LL	.	.	16e\LL	.	(4ee\	.	(4gg\	.	.	.	.	.	.	.	.
16D\	.	.	16f\	.	.	.	.	.	.	.	.	.	.	.	.
16E\	.	.	16g\	.	.	.	.	.	.	.	.	.	.	.	.
16F\JJ	.	.	16a\JJ	.	.	.	.	.	.	.	.	.	.	.	.
=5	=5	=5	=5	=5	=5	=5	=5	=5	=5	=5	=5	=5	=5	=5	=5
!LO:TX:t=P:problem=mixed beam	!	!	!	!	!	!	!	!	!	!	!	!	!	!	!
8G\L	7	.	8B/L	.	16dd\LL)	.	16ff\LL)	.	2ryy	2ryy	2ryy	0r	.	2ryy	2ryy
.	.	.	.	.	16cc|>\	.	16ee|>\	.	.	.	.	.	.	.	.
8GG/	.	.	8B/	.	16b|>\	.	16dd|>\	.	.	.	.	.	.	.	.
.	.	.	.	.	16a|>\JJ	.	16cc|>\JJ	.	.	.	.	.	.	.	.
8GG/	.	.	8B/	.	16g/LL	.	16b/LL	.	.	.	.	.	.	.	.
.	.	.	.	.	16f/	.	16a/	.	.	.	.	.	.	.	.
8GG/J	.	.	8B/J	.	16e/	.	16g/	.	.	.	.	.	.	.	.
.	.	.	.	.	16d/JJ	.	16f/JJ	.	.	.	.	.	.	.	.
=6	=6	=6	=6	=6	=6	=6	=6	=6	=6	=6	=6	=6	=6	=6	=6
!	!	!	!	!	!	!	!LO:TX:t=P:problem=mixed beam	!	!	!	!	!	!	!	!
8C\L	.	.	8G/L	.	8c/L	.	8e/L	.	2ryy	2ryy	2ryy	.	.	2ryy	2ryy
.	.	.	.	.	.	.	8qqdd/	.	.	.	.	.	.	.	.
8c\	6	.	8c/	.	8e/	.	16cc\L	.	.	.	.	.	.	.	.
.	.	.	.	.	.	.	8qqb/	.	.	.	.	.	.	.	.
.	.	.	.	.	.	.	16a\JJ	.	.	.	.	.	.	.	.
8B\	6	.	8B/	.	8d/	.	8g/L	.	.	.	.	.	.	.	.
8A\J	6\	.	8A/J	.	8c/J	.	8f#X/J	.	.	.	.	.	.	.	.
!	!	!	!	!	!	!	!LO:LB:g=original	!	!	!	!	!	!	!	!
=7	=7	=7	=7	=7	=7	=7	=7	=7	=7	=7	=7	=7	=7	=7	=7
8B\L	6	.	4G/	.	4d/	.	(16g\LL	.	2ryy	2ryy	2ryy	.	.	2ryy	2ryy
.	.	.	.	.	.	.	16a\)	.	.	.	.	.	.	.	.
8G\J	.	.	.	.	.	.	16b|>\	.	.	.	.	.	.	.	.
.	.	.	.	.	.	.	16dd|>\JJ	.	.	.	.	.	.	.	.
.	.	.	.	.	.	.	8qqg/	.	.	.	.	.	.	.	.
8r	.	.	8r	.	8r	.	4fnT/	.	.	.	.	.	.	.	.
8BB/	6 -5	.	8G/	.	8d/	.	.	.	.	.	.	.	.	.	.
=8	=8	=8	=8	=8	=8	=8	=8	=8	=8	=8	=8	=8	=8	=8	=8
!	!	!	!	!	!	!	!LO:TX:t=P:problem=mixed beam	!	!	!	!	!	!	!	!
8C\L	.	.	8G/L	.	8c/L	.	8e/L	.	2ryy	2ryy	2ryy	.	.	2ryy	2ryy
.	.	.	.	.	.	.	8qqdd/	.	.	.	.	.	.	.	.
8c\	6	.	8c/	.	8e/	.	16cc\L	.	.	.	.	.	.	.	.
.	.	.	.	.	.	.	8qqb/	.	.	.	.	.	.	.	.
.	.	.	.	.	.	.	16a\JJ	.	.	.	.	.	.	.	.
8B\	6	.	8B/	.	8d/	.	8g/L	.	.	.	.	.	.	.	.
8A\J	6\	.	8A/J	.	8c/J	.	8f#X/J	.	.	.	.	.	.	.	.
!	!	!	!	!	!LO:LB:g=original	!	!	!	!	!	!	!	!	!	!
=9	=9	=9	=9	=9	=9	=9	=9	=9	=9	=9	=9	=9	=9	=9	=9
!	!	!	!	!	!LO:TX:t=P:problem=mixed beam	!	!	!	!	!	!	!	!	!	!
8G\L	.	.	8d|>\L	.	16B|</LL	.	16g|>\LL	.	2ryy	2ryy	2ryy	0r	.	2ryy	2ryy
.	.	.	.	.	(16gg\	.	(16gg\	.	.	.	.	.	.	.	.
8G\	6	.	8b\	.	16ff#X\	.	16ff#X\	.	.	.	.	.	.	.	.
.	.	.	.	.	16ee\JJ)	.	16ee\JJ)	.	.	.	.	.	.	.	.
8F#X\	6	.	8a\	.	8dd\L	.	8dd\L	.	.	.	.	.	.	.	.
8D\J	7 #	.	8f#X\J	.	8cc\J	.	8cc\J	.	.	.	.	.	.	.	.
=10	=10	=10	=10	=10	=10	=10	=10	=10	=10	=10	=10	=10	=10	=10	=10
8G\L	.	.	8d\L	.	8.bt/L	.	8.bt/L	.	2ryy	2ryy	2ryy	.	.	2ryy	2ryy
8E\	.	.	8g\J	.	.	.	.	.	.	.	.	.	.	.	.
.	.	.	.	.	(32a/LL	.	32a/LL	.	.	.	.	.	.	.	.
.	.	.	.	.	32b/JJJ)	.	32b/JJJ	.	.	.	.	.	.	.	.
8A\	6\	.	4f#Xt\	.	4cc|>\	.	4cc|>\	.	.	.	.	.	.	.	.
8D\J	.	.	.	.	.	.	.	.	.	.	.	.	.	.	.
*custos:G	*	*	*	*	*	*	*	*	*	*	*	*	*	*	*
!LO:LB:g=original	!	!	!	!	!	!	!	!	!	!	!	!	!	!	!
=11	=11	=11	=11	=11	=11	=11	=11	=11	=11	=11	=11	=11	=11	=11	=11
8G\L	.	.	8d\L	.	8.bt/L	.	8.bt/L	.	2ryy	2ryy	2ryy	.	.	2ryy	2ryy
8E\	.	.	8g\J	.	.	.	.	.	.	.	.	.	.	.	.
.	.	.	.	.	32a/LL	.	32a/LL	.	.	.	.	.	.	.	.
.	.	.	.	.	32b/JJJ	.	32b/JJJ	.	.	.	.	.	.	.	.
8A\	6\	.	4f#Xt\	.	4cc|>\	.	4cc|>\	.	.	.	.	.	.	.	.
8D\J	.	.	.	.	.	.	.	.	.	.	.	.	.	.	.
=12	=12	=12	=12	=12	=12	=12	=12	=12	=12	=12	=12	=12	=12	=12	=12
8G\L	.	.	8d\L	.	8b|>\L	.	8b|>\L	.	2ryy	2ryy	2ryy	.	.	2ryy	2ryy
8B\	6	.	8d\	.	(16dd\L	.	(16dd\L	.	.	.	.	.	.	.	.
.	.	.	.	.	16g\JJ)	.	16g\JJ)	.	.	.	.	.	.	.	.
8c\	6	.	8e\	.	8a|</L	.	8a|</L	.	.	.	.	.	.	.	.
8d\J	.	.	8d\J	.	(16cc/L	.	(16cc/L	.	.	.	.	.	.	.	.
.	.	.	.	.	16f#X/JJ)	.	16f#X/JJ)	.	.	.	.	.	.	.	.
!	!	!	!LO:LB:g=original	!	!	!	!	!	!	!	!	!	!	!	!
=13	=13	=13	=13	=13	=13	=13	=13	=13	=13	=13	=13	=13	=13	=13	=13
!	!	!LO:DY:b:t=pia&colon;	!	!	!	!LO:DY:b:t=po	!	!LO:DY:b:t=pia	!	!	!	!	!	!	!
8G\L	.	p	8d\L	.	8.bt/L	p	8.bt/L	p	2ryy	2ryy	2ryy	1r	.	2ryy	2ryy
8E\	.	.	8g\J	.	.	.	.	.	.	.	.	.	.	.	.
.	.	.	.	.	32a/LL	.	(32a/LL	.	.	.	.	.	.	.	.
.	.	.	.	.	32b/JJJ	.	32b/JJJ)	.	.	.	.	.	.	.	.
8A\	6\	.	4f#Xt\	.	4cc|>\	.	4cc|>\	.	.	.	.	.	.	.	.
8D\J	.	.	.	.	.	.	.	.	.	.	.	.	.	.	.
=14	=14	=14	=14	=14	=14	=14	=14	=14	=14	=14	=14	=14	=14	=14	=14
.	.	.	.	.	8qqcc/	.	8qqcc/	.	.	.	.	.	.	.	.
8G\L	.	.	8d\L	.	8.bt/L	.	8.bt/L	.	2ryy	2ryy	2ryy	.	.	2ryy	2ryy
8E\	.	.	8g\J	.	.	.	.	.	.	.	.	.	.	.	.
.	.	.	.	.	32a/LL	.	32a/LL	.	.	.	.	.	.	.	.
.	.	.	.	.	32b/JJJ	.	32b/JJJ	.	.	.	.	.	.	.	.
.	.	.	8qqg/	.	.	.	.	.	.	.	.	.	.	.	.
8A\	6\	.	4f#Xt\	.	4cc|>\	.	4cc|>\	.	.	.	.	.	.	.	.
8D\J	.	.	.	.	.	.	.	.	.	.	.	.	.	.	.
=15	=15	=15	=15	=15	=15	=15	=15	=15	=15	=15	=15	=15	=15	=15	=15
!LO:TX:t=P:problem=mixed beam	!	!LO:DY:b:t=for	!	!	!	!LO:DY:b:t=for	!	!LO:DY:b:t=for	!	!	!	!	!	!	!
8G\L	.	f	8d\L	.	8b|</L	f	8b|>\L	f	2ryy	2ryy	2ryy	2r	.	2ryy	2ryy
8BB/	6	.	8d\	.	(16dd/L	.	(16dd\L	.	.	.	.	.	.	.	.
.	.	.	.	.	16g/JJ)	.	16g\JJ)	.	.	.	.	.	.	.	.
8C/	6	.	8e\	.	8a|</L	.	8a|>\L	.	.	.	.	.	.	.	.
8D/J	#	.	8d\J	.	(16cc/L	.	(16cc\L	.	.	.	.	.	.	.	.
.	.	.	.	.	16f#X/JJ)	.	16f#X\JJ)	.	.	.	.	.	.	.	.
=16	=16	=16	=16	=16	=16	=16	=16	=16	=16	=16	=16	=16	=16	=16	=16
!	!	!	!	!	!	!	!	!	!	!	!	!LO:TX:a:i:t=Solo.	!	!	!
4GG/	.	.	4d\	.	8g|</L	.	8g|</L	.	2ryy	2ryy	2ryy	4r	.	2ryy	2ryy
.	.	.	.	.	8d|</J	.	8d|</J	.	.	.	.	.	.	.	.
!	!	!	!	!	!	!	!LO:LB:g=original	!	!	!	!	!	!	!	!
=-	=-	=-	=-	=-	=-	=-	=-	=-	=-	=-	=-	=-	=-	=-	=-
8r	.	.	8r	.	8G/L	.	8G/L	.	.	.	.	8r	.	.	.
!	!	!LO:DY:b:t=pia	!	!LO:DY:b:t=po.	!	!	!	!LO:DY:b:t=piano	!	!	!	!	!	!	!
8C/	.	p	8c/	p	16c/L	.	16e/L	p	.	.	.	16e/	Qui-	.	.
.	.	.	.	.	16d/JJ	.	16fn/JJ	.	.	.	.	16f/	-a	.	.
!	!	!	!	!	!LO:LB:g=original	!	!	!	!	!	!	!	!	!	!
=17	=17	=17	=17	=17	=17	=17	=17	=17	=17	=17	=17	=17	=17	=17	=17
8C/L	.	.	8c/L	.	8e/L	.	8g/L	.	2ryy	2ryy	2ryy	8g/	fe-	2ryy	2ryy
8C/	.	.	8c/	.	16c/L	.	16e/L	.	.	.	.	16e/LL	-cit	.	.
.	.	.	.	.	16d/JJ	.	16f/JJ	.	.	.	.	16f/JJ	.	.	.
8C/	.	.	8c/	.	8e/L	.	8g/L	.	.	.	.	8g/	mi-	.	.
8C/J	6 4	.	8c/J	.	8f/J	.	8a/J	.	.	.	.	8a\	-hi	.	.
=18	=18	=18	=18	=18	=18	=18	=18	=18	=18	=18	=18	=18	=18	=18	=18
.	.	.	.	.	8qqg/	.	8qqb/	.	.	.	.	8qqb/	.	.	.
8C\L	6 4	.	8c/L	.	8f/L	.	8a/L	.	2ryy	2ryy	2ryy	8a\	ma-	2ryy	2ryy
8C\J	5 3	.	8c/J	.	8e/J	.	8g/J	.	.	.	.	8g\	-gna	.	.
16C\LL	.	.	16e\LL	.	8ee\L	.	8gg\L	.	.	.	.	(4gg\	fe-	.	.
16D\	.	.	16f\	.	.	.	.	.	.	.	.	.	.	.	.
16E\	.	.	16g\	.	8ee\J	.	8gg\J	.	.	.	.	.	.	.	.
16F\JJ	.	.	16a\JJ	.	.	.	.	.	.	.	.	.	.	.	.
=19	=19	=19	=19	=19	=19	=19	=19	=19	=19	=19	=19	=19	=19	=19	=19
!LO:TX:t=P:problem=mixed beam	!	!	!	!	!	!	!	!	!	!	!	!	!	!	!
8G\L	7	.	8B/L	.	8dd\L	.	8ff\L	.	2ryy	2ryy	2ryy	16ff|>\LL)	.	2ryy	2ryy
.	.	.	.	.	.	.	.	.	.	.	.	16ee|>\	.	.	.
8GG/	.	.	8B/	.	8dd\	.	8ff\	.	.	.	.	16dd|>\	.	.	.
.	.	.	.	.	.	.	.	.	.	.	.	16cc|>\JJ	.	.	.
8GG/	.	.	8B/	.	8dd\	.	8ff\	.	.	.	.	16b|>\LL	.	.	.
.	.	.	.	.	.	.	.	.	.	.	.	16a|>\	.	.	.
8GG/J	.	.	8B/J	.	8dd\J	.	8ff\J	.	.	.	.	16g|>\	.	.	.
.	.	.	.	.	.	.	.	.	.	.	.	16f|>\JJ	.	.	.
!	!	!	!	!	!	!	!	!	!	!	!	!LO:LB:g=original	!	!	!
=20	=20	=20	=20	=20	=20	=20	=20	=20	=20	=20	=20	=20	=20	=20	=20
8C\L	.	.	8G/L	.	8cc\L	.	8ee\L	.	2ryy	2ryy	2ryy	16e/LL	.	2ryy	2ryy
.	.	.	.	.	.	.	.	.	.	.	.	16f/JJ	.	.	.
8C\J	.	.	8G/J	.	8cc\	.	8ee\	.	.	.	.	8g/	-cit	.	.
16C\LL	.	.	16e\LL	.	8ee\	.	8gg\	.	.	.	.	(4gg\	fe-	.	.
16D\	.	.	16f\	.	.	.	.	.	.	.	.	.	.	.	.
16E\	.	.	16g\	.	8ee\J	.	8gg\J	.	.	.	.	.	.	.	.
16F\JJ	.	.	16a\JJ	.	.	.	.	.	.	.	.	.	.	.	.
=21	=21	=21	=21	=21	=21	=21	=21	=21	=21	=21	=21	=21	=21	=21	=21
!LO:TX:t=P:problem=mixed beam	!	!	!	!	!	!	!	!	!	!	!	!	!	!	!
8G\L	7	.	8B/L	.	8dd\L	.	8ff\L	.	2ryy	2ryy	2ryy	16ff\LL)	.	2ryy	2ryy
.	.	.	.	.	.	.	.	.	.	.	.	16ee|>\	.	.	.
8GG/	.	.	8B/	.	8dd\	.	8ff\	.	.	.	.	16dd|>\	.	.	.
.	.	.	.	.	.	.	.	.	.	.	.	16cc|>\JJ	.	.	.
8GG/	.	.	8B/	.	8dd\	.	8ff\	.	.	.	.	16b|>\LL	.	.	.
.	.	.	.	.	.	.	.	.	.	.	.	16a|>\JJ	.	.	.
8GG/J	.	.	8B/J	.	8dd\J	.	8ff\J	.	.	.	.	(16g\LL	-cit	.	.
.	.	.	.	.	.	.	.	.	.	.	.	16f\JJ)	.	.	.
=22	=22	=22	=22	=22	=22	=22	=22	=22	=22	=22	=22	=22	=22	=22	=22
!	!	!	!LO:TX:t=P:problem=mixed beam	!	!LO:TX:t=P:problem=mixed beam	!	!LO:TX:t=P:problem=mixed beam	!	!	!	!	!	!	!	!
8C\L	.	.	8G/L	.	8cc\L	.	8ee\L	.	2ryy	2ryy	2ryy	(16e/LL	ma-	2ryy	2ryy
.	.	.	.	.	.	.	.	.	.	.	.	16d/JJ)	.	.	.
8c\	.	.	8g\	.	8c/	.	8e/	.	.	.	.	8c/	-gna	.	.
8C\J	.	.	8G/J	.	8cc\J	.	8ee\J	.	.	.	.	8r	.	.	.
8r	.	.	8r	.	8r	.	8r	.	.	.	.	8g/	qui	.	.
!LO:LB:g=original	!	!	!	!	!	!	!	!	!	!	!	!	!	!	!
=23	=23	=23	=23	=23	=23	=23	=23	=23	=23	=23	=23	=23	=23	=23	=23
!LO:TX:a:t=1.	!	!	!	!	!	!	!	!	!	!	!	!	!	!	!
2r	.	.	2r	.	4r	.	4r	.	2ryy	2ryy	2ryy	(8a\L	po-	2ryy	2ryy
.	.	.	.	.	.	.	.	.	.	.	.	8f#X\J)	.	.	.
.	.	.	.	.	8r	.	8r	.	.	.	.	8g\	-tens	.	.
.	.	.	.	.	8G/	.	8g/	.	.	.	.	8b\	qui	.	.
=24	=24	=24	=24	=24	=24	=24	=24	=24	=24	=24	=24	=24	=24	=24	=24
4r	.	.	4r	.	8c/L	.	(<8a/L	.	2ryy	2ryy	2ryy	(8cc\L	po-	2ryy	2ryy
.	.	.	.	.	8d/	.	8f#X/)	.	.	.	.	8a\J)	.	.	.
8r	.	.	8r	.	8G/	.	8g/	.	.	.	.	8b\	-tens	.	.
8G\	.	.	8g\	.	8b/J	.	8dd|>\J	.	.	.	.	8dd\	qui	.	.
=25	=25	=25	=25	=25	=25	=25	=25	=25	=25	=25	=25	=25	=25	=25	=25
!LO:TX:t=P:problem=mixed beam	!	!	!	!	!	!	!	!	!	!	!	!	!	!	!
.	.	.	.	.	.	.	.	.	.	.	.	8qqdd/	.	.	.
8c\L	.	.	8g\L	.	8cc\L	.	8ee\L	.	2ryy	2ryy	2ryy	[4ee\	po-	2ryy	2ryy
8C/	.	.	8g\	.	8cc\	.	8ee\	.	.	.	.	.	.	.	.
8C/	.	.	8g\	.	8cc\	.	8ee\	.	.	.	.	16ee\LL]	.	.	.
.	.	.	.	.	.	.	.	.	.	.	.	16ff\	.	.	.
8C/J	.	.	8g\J	.	8cc\J	.	8ee\J	.	.	.	.	16ee\	.	.	.
.	.	.	.	.	.	.	.	.	.	.	.	16dd\JJ	.	.	.
=26	=26	=26	=26	=26	=26	=26	=26	=26	=26	=26	=26	=26	=26	=26	=26
8C/L	.	.	8g\L	.	8cc\L	.	8ee\L	.	2ryy	2ryy	2ryy	(16ee\LL	.	2ryy	2ryy
.	.	.	.	.	.	.	.	.	.	.	.	16cc\)	.	.	.
8C/	.	.	8g\	.	8dd\	.	8ff\	.	.	.	.	16ff\	.	.	.
.	.	.	.	.	.	.	.	.	.	.	.	16dd\JJ	.	.	.
8C/	.	.	8g\	.	8ee\	.	8gg\	.	.	.	.	16gg\LL	.	.	.
.	.	.	.	.	.	.	.	.	.	.	.	16ee\	.	.	.
8C/J	.	.	8g\J	.	8cc\J	.	8ee\J	.	.	.	.	16dd\	.	.	.
.	.	.	.	.	.	.	.	.	.	.	.	16cc\JJ	.	.	.
!	!	!	!LO:LB:g=original	!	!LO:LB:g=original	!	!	!	!	!	!	!	!	!	!
=27	=27	=27	=27	=27	=27	=27	=27	=27	=27	=27	=27	=27	=27	=27	=27
.	.	.	.	.	.	.	.	.	.	.	.	8qqcc/	.	.	.
8G\L	.	.	8g\L	.	8b/L	.	8dd\L	.	2ryy	2ryy	2ryy	[4dd\	.	2ryy	2ryy
8G\	.	.	8g\	.	8b/	.	8dd\	.	.	.	.	.	.	.	.
8G\	.	.	8g\	.	8b/	.	8dd\	.	.	.	.	16dd\LL]	.	.	.
.	.	.	.	.	.	.	.	.	.	.	.	16ee\	.	.	.
8G\J	.	.	8g\J	.	8b/J	.	8dd\J	.	.	.	.	16dd\	.	.	.
.	.	.	.	.	.	.	.	.	.	.	.	16cc\JJ	.	.	.
!	!	!	!	!	!	!	!LO:LB:g=original	!	!	!	!	!LO:LB:g=original	!	!	!
=28	=28	=28	=28	=28	=28	=28	=28	=28	=28	=28	=28	=28	=28	=28	=28
8GG/L	.	.	8g\L	.	8b/L	.	8dd\L	.	2ryy	2ryy	2ryy	(16dd\LL	.	2ryy	2ryy
.	.	.	.	.	.	.	.	.	.	.	.	16b\)	.	.	.
8GG/	.	.	8g\	.	8cc/	.	8ee\	.	.	.	.	16ee\	.	.	.
.	.	.	.	.	.	.	.	.	.	.	.	16cc\JJ	.	.	.
8GG/	.	.	8g\	.	8dd/	.	8ff\	.	.	.	.	16ff\LL	.	.	.
.	.	.	.	.	.	.	.	.	.	.	.	16dd\	.	.	.
8GG/J	.	.	8g\J	.	8b/J	.	8dd\J	.	.	.	.	16cc\	.	.	.
.	.	.	.	.	.	.	.	.	.	.	.	16b\JJ	.	.	.
=29	=29	=29	=29	=29	=29	=29	=29	=29	=29	=29	=29	=29	=29	=29	=29
.	.	.	.	.	.	.	.	.	.	.	.	8qqb/	.	.	.
8AA/L	.	.	8e\L	.	8a/L	.	8cc\L	.	2ryy	2ryy	2ryy	[4cc\	.	2ryy	2ryy
8AA/	.	.	8e\	.	8a/	.	8cc\	.	.	.	.	.	.	.	.
8AA/	.	.	8e\	.	8a/	.	8cc\	.	.	.	.	16cc\LL]	.	.	.
.	.	.	.	.	.	.	.	.	.	.	.	16dd\	.	.	.
8AA/J	.	.	8e\J	.	8a/J	.	8cc\J	.	.	.	.	16cc\	.	.	.
.	.	.	.	.	.	.	.	.	.	.	.	16b\JJ	.	.	.
=30	=30	=30	=30	=30	=30	=30	=30	=30	=30	=30	=30	=30	=30	=30	=30
8D/L	7 #	.	8f#X\L	.	8a/L	.	8cc\L	.	2ryy	2ryy	2ryy	(16cc\LL	.	2ryy	2ryy
.	.	.	.	.	.	.	.	.	.	.	.	16a\)	.	.	.
8D/	.	.	8f#\	.	8b/	.	8dd\	.	.	.	.	16dd\	.	.	.
.	.	.	.	.	.	.	.	.	.	.	.	16b\JJ	.	.	.
8D/	.	.	8f#\	.	8cc/	.	8ee\	.	.	.	.	16ee\LL	.	.	.
.	.	.	.	.	.	.	.	.	.	.	.	16cc\	.	.	.
8D/J	.	.	8f#\J	.	8a/J	.	8cc\J	.	.	.	.	16b\	.	.	.
.	.	.	.	.	.	.	.	.	.	.	.	16a\JJ	.	.	.
=31	=31	=31	=31	=31	=31	=31	=31	=31	=31	=31	=31	=31	=31	=31	=31
!LO:TX:t=P:problem=mixed beam	!	!	!	!	!	!	!	!	!	!	!	!	!	!	!
8G\L	.	.	8d\L	.	4g|</	.	4b|>/	.	2ryy	2ryy	2ryy	16b\LL	.	2ryy	2ryy
.	.	.	.	.	.	.	.	.	.	.	.	16g\	.	.	.
8GG/	.	.	8d\	.	.	.	.	.	.	.	.	16a\	.	.	.
.	.	.	.	.	.	.	.	.	.	.	.	16b\JJ	.	.	.
8AA/	6\	.	8c\	.	4r	.	4r	.	.	.	.	16cc\LL	.	.	.
.	.	.	.	.	.	.	.	.	.	.	.	16dd\	.	.	.
8A\J	.	.	8c\J	.	.	.	.	.	.	.	.	16ee\	.	.	.
.	.	.	.	.	.	.	.	.	.	.	.	16ff#X\JJ	.	.	.
=32	=32	=32	=32	=32	=32	=32	=32	=32	=32	=32	=32	=32	=32	=32	=32
!LO:TX:t=P:problem=mixed beam	!	!	!	!	!	!	!	!	!	!	!	!	!	!	!
8B\L	6	.	8d\L	.	4g|</	.	4b|>/	.	2ryy	2ryy	2ryy	16gg\LL	.	2ryy	2ryy
.	.	.	.	.	.	.	.	.	.	.	.	16g\	.	.	.
8BB/	.	.	8d\	.	.	.	.	.	.	.	.	16a\	.	.	.
.	.	.	.	.	.	.	.	.	.	.	.	16b\JJ	.	.	.
8AA/	6\	.	8c\	.	4r	.	4r	.	.	.	.	16cc\LL	.	.	.
.	.	.	.	.	.	.	.	.	.	.	.	16dd\	.	.	.
8A\J	.	.	8c\J	.	.	.	.	.	.	.	.	16ee\	.	.	.
.	.	.	.	.	.	.	.	.	.	.	.	16ff#X\JJ	.	.	.
=33	=33	=33	=33	=33	=33	=33	=33	=33	=33	=33	=33	=33	=33	=33	=33
8G|>\L	.	.	16g\LL	.	16gg\LL	.	16gg\LL	.	2ryy	2ryy	2ryy	(8gg\L	.	2ryy	2ryy
.	.	.	16g\	.	16gg\	.	16gg\	.	.	.	.	.	.	.	.
8D\|>J	.	.	16d\	.	16dd\	.	16dd\	.	.	.	.	8dd\J)	.	.	.
.	.	.	16d\JJ	.	16dd\JJ	.	16dd\JJ	.	.	.	.	.	.	.	.
8BB|</L	.	.	16B/LL	.	16b/LL	.	16b/LL	.	.	.	.	8b\	-tens	.	.
.	.	.	16B/	.	16b/	.	16b/	.	.	.	.	.	.	.	.
8GG|</J	.	.	16G/	.	16g/	.	16g/	.	.	.	.	8g\	po-	.	.
.	.	.	16G/JJ	.	16g/JJ	.	16g/JJ	.	.	.	.	.	.	.	.
=34	=34	=34	=34	=34	=34	=34	=34	=34	=34	=34	=34	=34	=34	=34	=34
!LO:TX:t=P:problem=mixed beam	!	!	!LO:TX:t=P:problem=mixed beam	!	!LO:TX:t=P:problem=mixed beam	!	!LO:TX:t=P:problem=mixed beam	!	!	!	!	!	!	!	!
8D\L	#	.	8d\L	.	8dd\L	.	8dd\L	.	2ryy	2ryy	2ryy	8dd\	-tens	2ryy	2ryy
8DD/J	.	.	8D/J	.	8d/	.	8d/J	.	.	.	.	8d/	eſt	.	.
!	!	!	!	!	!LO:TX:b:t=g	!	!	!	!	!	!	!	!	!	!
4r	.	.	4r	.	8g/	.	8b/L	.	.	.	.	4ee\	et	.	.
!	!	!	!	!	!LO:TX:b:t=g	!	!	!	!	!	!	!	!	!	!
.	.	.	.	.	8g/J	.	8b/J	.	.	.	.	.	.	.	.
!LO:LB:g=original	!	!	!	!	!	!	!	!	!	!	!	!LO:LB:g=original	!	!	!
=35	=35	=35	=35	=35	=35	=35	=35	=35	=35	=35	=35	=35	=35	=35	=35
!LO:TX:a:t=5.	!	!	!	!	!	!	!	!	!	!	!	!	!	!	!
0r	.	.	0r	.	8f#X/L	.	8a/L	.	2ryy	2ryy	2ryy	(4dd\	San-	2ryy	2ryy
.	.	.	.	.	8f#/	.	8a/	.	.	.	.	.	.	.	.
.	.	.	.	.	8e/	.	8g/	.	.	.	.	4cc#Xt\)	.	.	.
.	.	.	.	.	8e/J	.	8g/J	.	.	.	.	.	.	.	.
=36	=36	=36	=36	=36	=36	=36	=36	=36	=36	=36	=36	=36	=36	=36	=36
.	.	.	.	.	8d/L	.	8f#X/L	.	2ryy	2ryy	2ryy	4dd\	-ctum	2ryy	2ryy
.	.	.	.	.	8d/	.	8f#/	.	.	.	.	.	.	.	.
.	.	.	.	.	8e/	.	8g/	.	.	.	.	4ccn\	et	.	.
.	.	.	.	.	8e/J	.	8g/J	.	.	.	.	.	.	.	.
=37	=37	=37	=37	=37	=37	=37	=37	=37	=37	=37	=37	=37	=37	=37	=37
.	.	.	.	.	8d/L	.	8f#X/L	.	2ryy	2ryy	2ryy	(4b\	San-	2ryy	2ryy
.	.	.	.	.	8d/	.	8f#/	.	.	.	.	.	.	.	.
.	.	.	.	.	8c/	.	8e/	.	.	.	.	4a#Xt\)	.	.	.
.	.	.	.	.	8c/J	.	8e/J	.	.	.	.	.	.	.	.
!	!	!	!	!	!LO:LB:g=original	!	!	!	!	!	!	!	!	!	!
=38	=38	=38	=38	=38	=38	=38	=38	=38	=38	=38	=38	=38	=38	=38	=38
.	.	.	.	.	8B/L	.	8d#X/L	.	2ryy	2ryy	2ryy	4b\	-ctum	2ryy	2ryy
.	.	.	.	.	8B/	.	8d#/	.	.	.	.	.	.	.	.
.	.	.	.	.	8c/	.	8e/	.	.	.	.	4an\	et	.	.
.	.	.	.	.	8c/J	.	8e/J	.	.	.	.	.	.	.	.
=39	=39	=39	=39	=39	=39	=39	=39	=39	=39	=39	=39	=39	=39	=39	=39
2r	.	.	2r	.	8B/L	.	8dn/L	.	2ryy	2ryy	2ryy	4g/	San-	2ryy	2ryy
.	.	.	.	.	8B/	.	8d/	.	.	.	.	.	.	.	.
.	.	.	.	.	8A/	.	8c/	.	.	.	.	4f#X/	-ctum	.	.
.	.	.	.	.	8A/J	.	8c/J	.	.	.	.	.	.	.	.
!	!	!	!	!	!	!	!LO:LB:g=original	!	!	!	!	!	!	!	!
=40	=40	=40	=40	=40	=40	=40	=40	=40	=40	=40	=40	=40	=40	=40	=40
8G\L	.	.	8G/L	.	8B/L	.	8d/L	.	2ryy	2ryy	2ryy	16g/LL	no-	2ryy	2ryy
.	.	.	.	.	.	.	.	.	.	.	.	16d/	.	.	.
8G\	.	.	8G/	.	8B/	.	8d/	.	.	.	.	16e/	.	.	.
.	.	.	.	.	.	.	.	.	.	.	.	16f#X/JJ	.	.	.
8G\	.	.	8G/	.	8B/	.	8d/	.	.	.	.	(16g/LL	.	.	.
.	.	.	.	.	.	.	.	.	.	.	.	16d/J)	.	.	.
8G\J	.	.	8G/J	.	8B/J	.	8d/J	.	.	.	.	8dT/J	.	.	.
=41	=41	=41	=41	=41	=41	=41	=41	=41	=41	=41	=41	=41	=41	=41	=41
8G\L	.	.	8G/L	.	8B/L	.	8d/L	.	2ryy	2ryy	2ryy	(16b\LL	.	2ryy	2ryy
.	.	.	.	.	.	.	.	.	.	.	.	16g\J)	.	.	.
8G\	.	.	8G/	.	8B/	.	8d/	.	.	.	.	8gT\J	.	.	.
8G\	.	.	8G/	.	8B/	.	8d/	.	.	.	.	(16dd\LL	.	.	.
.	.	.	.	.	.	.	.	.	.	.	.	16b\J)	.	.	.
8G\J	.	.	8G/J	.	8B/J	.	8d/J	.	.	.	.	8bt\J	.	.	.
=42	=42	=42	=42	=42	=42	=42	=42	=42	=42	=42	=42	=42	=42	=42	=42
*	*	*	*	*	*	*	*	*	*	*	*	*2\right	*	*	*
4GG/	.	.	4G/	.	8G/L	.	8B/L	.	2ryy	2ryy	2ryy	[2gg\	.	2ryy	2ryy
.	.	.	.	.	8A/	.	8c/	.	.	.	.	.	.	.	.
4r	.	.	8r	.	8B/	.	8d/	.	.	.	.	.	.	.	.
.	.	.	8G/	.	8c/J	.	8e/J	.	.	.	.	.	.	.	.
=43	=43	=43	=43	=43	=43	=43	=43	=43	=43	=43	=43	=43	=43	=43	=43
!	!	!	!	!	!LO:TX:t=P:problem=mixed beam	!	!LO:TX:t=P:problem=mixed beam	!	!	!	!	!	!	!	!
8G\L	.	.	8G/L	.	8B/L	.	8d/L	.	2ryy	2ryy	2ryy	8gg\L]	.	2ryy	2ryy
8A\	6\	.	8c/	.	8cc\	.	8ff#X\	.	.	.	.	16ff#X\L	.	.	.
.	.	.	.	.	.	.	.	.	.	.	.	16ee\JJ	.	.	.
8B\	6	.	8d/	.	8b\	.	8gg\	.	.	.	.	16dd\LL	.	.	.
.	.	.	.	.	.	.	.	.	.	.	.	16cc\	.	.	.
8c\J	6 5	.	8e/J	.	8a\J	.	8gg\J	.	.	.	.	16b\	.	.	.
.	.	.	.	.	.	.	.	.	.	.	.	16a\JJ	.	.	.
=44	=44	=44	=44	=44	=44	=44	=44	=44	=44	=44	=44	=44	=44	=44	=44
!LO:TX:t=P:problem=mixed beam	!	!	!	!	!	!	!	!	!	!	!	!	!	!	!
8d\L	6 4	.	8d\L	.	8b/L	.	8gg\L	.	2ryy	2ryy	2ryy	4g/	-men	2ryy	2ryy
8d\	.	.	8d\	.	8b/	.	8gg\	.	.	.	.	.	.	.	.
8D/	5 #	.	8d\	.	8a/	.	8ff#X\	.	.	.	.	4aT\	e-	.	.
8D/J	.	.	8d\J	.	8a/J	.	8ff#\J	.	.	.	.	.	.	.	.
=45	=45	=45	=45	=45	=45	=45	=45	=45	=45	=45	=45	=45	=45	=45	=45
!LO:TX:t=P:problem=mixed beam	!	!	!	!	!	!	!	!	!	!	!	!	!	!	!
8G\L	.	.	8d\L	.	4b/	.	4gg\	.	2ryy	2ryy	2ryy	4g/	-jus	2ryy	2ryy
!	!	!LO:DY:b:t=for&colon;	!	!	!	!	!	!	!	!	!	!	!	!	!
8GG/J	.	f	8B\J	.	.	.	.	.	.	.	.	.	.	.	.
!	!	!	!	!LO:DY:b:t=for	!	!	!	!	!	!	!	!	!	!	!
16G\LL	.	.	16B\LL	f	8r	.	8r	.	.	.	.	4r	.	.	.
16A\	.	.	16c\	.	.	.	.	.	.	.	.	.	.	.	.
!	!	!	!	!	!	!LO:DY:b:t=for	!	!LO:DY:b:t=for	!	!	!	!	!	!	!
16B\	.	.	16d\	.	8gg\	f	8gg\	f	.	.	.	.	.	.	.
16c\JJ	.	.	16e\JJ	.	.	.	.	.	.	.	.	.	.	.	.
!	!	!	!LO:LB:g=original	!	!	!	!	!	!	!	!	!LO:LB:g=original	!	!	!
=46	=46	=46	=46	=46	=46	=46	=46	=46	=46	=46	=46	=46	=46	=46	=46
!	!	!	!LO:TX:t=P:problem=mixed beam	!	!	!	!	!	!	!	!	!	!	!	!
8d\L	#	.	8A/L	.	(32ff#X\LLL	.	(32ff#X\LLL	.	2ryy	2ryy	2ryy	0r	.	2ryy	2ryy
.	.	.	.	.	32gg\JJ)	.	32gg\JJ	.	.	.	.	.	.	.	.
.	.	.	.	.	8.aa\J	.	8.aa\J)	.	.	.	.	.	.	.	.
8d\	.	.	8f#X\J	.	.	.	.	.	.	.	.	.	.	.	.
8F#X\	6 5	.	[>4d\	.	(32a\LLL	.	(32a/LLL	.	.	.	.	.	.	.	.
.	.	.	.	.	32b\JJ)	.	32b/JJ	.	.	.	.	.	.	.	.
.	.	.	.	.	8.cc\J	.	8.cc/J)	.	.	.	.	.	.	.	.
8F#\J	.	.	.	.	.	.	.	.	.	.	.	.	.	.	.
=47	=47	=47	=47	=47	=47	=47	=47	=47	=47	=47	=47	=47	=47	=47	=47
8G\L	.	.	8d\L]	.	(16b/LL	.	16b/LL	.	2ryy	2ryy	2ryy	.	.	2ryy	2ryy
.	.	.	.	.	16a/JJ)	.	16a/JJ	.	.	.	.	.	.	.	.
8G\	.	.	8b\J	.	4g/	.	4g/	.	.	.	.	.	.	.	.
8B\	6 5nr	.	4g\	.	.	.	.	.	.	.	.	.	.	.	.
8B\J	.	.	.	.	8ffn\	.	8ffn\	.	.	.	.	.	.	.	.
!	!	!	!	!	!LO:LB:g=original	!	!	!	!	!	!	!	!	!	!
=48	=48	=48	=48	=48	=48	=48	=48	=48	=48	=48	=48	=48	=48	=48	=48
!	!	!	!LO:TX:t=P:problem=mixed beam	!	!	!	!	!	!	!	!	!	!	!	!
8c\L	.	.	8G/L	.	(32ee\LLL	.	(32ee\LLL	.	2ryy	2ryy	2ryy	.	.	2ryy	2ryy
.	.	.	.	.	32ff\JJ)	.	32ff\JJ	.	.	.	.	.	.	.	.
.	.	.	.	.	8.gg\J	.	8.gg\J)	.	.	.	.	.	.	.	.
8c\	.	.	8e\J	.	.	.	.	.	.	.	.	.	.	.	.
8E\	6 -5	.	[>4c\	.	(32g/LLL	.	(32g/LLL	.	.	.	.	.	.	.	.
.	.	.	.	.	32a/JJ)	.	32a/JJ	.	.	.	.	.	.	.	.
.	.	.	.	.	8.b-X/J	.	8.b-X/J)	.	.	.	.	.	.	.	.
8E\J	.	.	.	.	.	.	.	.	.	.	.	.	.	.	.
=49	=49	=49	=49	=49	=49	=49	=49	=49	=49	=49	=49	=49	=49	=49	=49
8F\L	.	.	8c\L]	.	16a/LL	.	16a/LL	.	2ryy	2ryy	2ryy	.	.	2ryy	2ryy
.	.	.	.	.	16g/JJ	.	16g/JJ	.	.	.	.	.	.	.	.
8F\	.	.	8a\	.	4f/	.	4f/	.	.	.	.	.	.	.	.
8A\	6	.	8cc\	.	.	.	.	.	.	.	.	.	.	.	.
8G\J	6 -	.	8b-X\J	.	16ff\LL	.	16ff\LL	.	.	.	.	.	.	.	.
.	.	.	.	.	16gg\JJ	.	16gg\JJ	.	.	.	.	.	.	.	.
=50	=50	=50	=50	=50	=50	=50	=50	=50	=50	=50	=50	=50	=50	=50	=50
8F\L	.	.	8a\L	.	8.aa\L	.	8.aa\L	.	2ryy	2ryy	2ryy	0r	.	2ryy	2ryy
8G\	.	.	8bn\	.	.	.	.	.	.	.	.	.	.	.	.
.	.	.	.	.	16gg\Jk	.	16gg\Jk	.	.	.	.	.	.	.	.
!	!	!	!	!	!	!	!LO:LB:g=original	!	!	!	!	!	!	!	!
=-	=-	=-	=-	=-	=-	=-	=-	=-	=-	=-	=-	=-	=-	=-	=-
8A\	6	.	8cc\	.	16ff\LL	.	16ff\LL	.	.	.	.	.	.	.	.
.	.	.	.	.	16ee\	.	16ee\	.	.	.	.	.	.	.	.
8F\J	.	.	8a\J	.	16dd\	.	16dd\	.	.	.	.	.	.	.	.
*custos:G	*	*	*	*	*	*	*	*	*	*	*	*	*	*	*
.	.	.	.	.	16cc\JJ	.	16cc\JJ	.	.	.	.	.	.	.	.
!LO:LB:g=original	!	!	!	!	!	!	!	!	!	!	!	!	!	!	!
=51	=51	=51	=51	=51	=51	=51	=51	=51	=51	=51	=51	=51	=51	=51	=51
8G\L	5 3	.	8g\L	.	8b\L	.	(16b\LL	.	2ryy	2ryy	2ryy	.	.	2ryy	2ryy
.	.	.	.	.	.	.	16gg\)	.	.	.	.	.	.	.	.
8G\	6 4	.	8g\	.	8ccT\J	.	16ee\	.	.	.	.	.	.	.	.
.	.	.	.	.	.	.	16cc\JJ	.	.	.	.	.	.	.	.
8G\	5 3	.	8g\	.	(16dd\LL	.	8bt\L	.	.	.	.	.	.	.	.
.	.	.	.	.	16gg\)	.	.	.	.	.	.	.	.	.	.
8G\J	6 4	.	8g\J	.	(16ee\	.	8cc\J	.	.	.	.	.	.	.	.
.	.	.	.	.	16cc\JJ)	.	.	.	.	.	.	.	.	.	.
=52	=52	=52	=52	=52	=52	=52	=52	=52	=52	=52	=52	=52	=52	=52	=52
8G\L	5 3	.	8g\L	.	8b\L	.	(16dd\LL	.	2ryy	2ryy	2ryy	.	.	2ryy	2ryy
.	.	.	.	.	.	.	16gg\	.	.	.	.	.	.	.	.
8G\	6 4	.	8g\	.	8ccT\J	.	16ee\)	.	.	.	.	.	.	.	.
.	.	.	.	.	.	.	16cc\JJ	.	.	.	.	.	.	.	.
8G\	5 3	.	8g\	.	(16dd\LL	.	8b\L	.	.	.	.	.	.	.	.
.	.	.	.	.	16gg\)	.	.	.	.	.	.	.	.	.	.
8G\J	6 4	.	8g\J	.	(16ee\	.	16cc\L	.	.	.	.	.	.	.	.
.	.	.	.	.	16dd\JJ)	.	16dd\JJ	.	.	.	.	.	.	.	.
=53	=53	=53	=53	=53	=53	=53	=53	=53	=53	=53	=53	=53	=53	=53	=53
8F#X\L	7-r 5	.	8a\L	.	8cc\	.	8ee-X\	.	2ryy	2ryy	2ryy	.	.	2ryy	2ryy
8F#\	.	.	8a\	.	4aa\	.	4ccc\	.	.	.	.	.	.	.	.
8F#\	.	.	8a\	.	.	.	.	.	.	.	.	.	.	.	.
8F#\J	.	.	8a\J	.	8cc\	.	8ee-\	.	.	.	.	.	.	.	.
=54	=54	=54	=54	=54	=54	=54	=54	=54	=54	=54	=54	=54	=54	=54	=54
!LO:TX:t=P:problem=mixed beam	!	!	!LO:TX:t=P:problem=mixed beam	!	!	!	!	!	!	!	!	!	!	!	!
16G\LL	.	.	8g\L	.	8ccT\L	.	8eet\L	.	2ryy	2ryy	2ryy	4r	.	2ryy	2ryy
16GG/	.	.	.	.	.	.	.	.	.	.	.	.	.	.	.
16G\	.	.	8G/J	.	8b\J	.	8dd\J	.	.	.	.	.	.	.	.
16Fn\JJ	.	.	.	.	.	.	.	.	.	.	.	.	.	.	.
8E\L	6	.	8r	.	8r	.	8r	.	.	.	.	8r	.	.	.
!	!	!LO:DY:b:t=pia&colon;	!	!LO:DY:b:t=pia	!	!LO:DY:b:t=pian	!	!LO:DY:b:t=po.	!	!	!	!	!	!	!
8C\J	.	p	8c/	p	16c/LL	p	16en/LL	p	.	.	.	16e/	Qui-	.	.
.	.	.	.	.	16d/JJ	.	16f/JJ	.	.	.	.	16f/	-a	.	.
=55	=55	=55	=55	=55	=55	=55	=55	=55	=55	=55	=55	=55	=55	=55	=55
8C/L	.	.	8c/L	.	8e/L	.	8g/L	.	2ryy	2ryy	2ryy	8g/	fe-	2ryy	2ryy
8C/	.	.	8c/	.	16c/L	.	16e/L	.	.	.	.	16e/LL	-cit	.	.
.	.	.	.	.	16d/JJ	.	16f/JJ	.	.	.	.	16f/JJ	.	.	.
8C/	.	.	8c/	.	8e/L	.	8g/L	.	.	.	.	8g/	mi-	.	.
8C/J	6 4	.	8c/J	.	8f/J	.	8a/J	.	.	.	.	8a/	-hi	.	.
=56	=56	=56	=56	=56	=56	=56	=56	=56	=56	=56	=56	=56	=56	=56	=56
!	!	!	!	!	!	!	!LO:TX:t=P:problem=mixed beam	!	!	!	!	!	!	!	!
.	.	.	.	.	.	.	.	.	.	.	.	8qqb/	.	.	.
!	!	!	!	!	!LO:TX:t=P:problem=mixed beam	!	!	!	!	!	!	!	!	!	!
8C/L	6 4	.	8c/L	.	8f/L	.	8a/L	.	2ryy	2ryy	2ryy	8a\	ma-	2ryy	2ryy
8C/J	5 3	.	8c/J	.	8e/	.	8g/	.	.	.	.	8g\	-gna	.	.
16C\LL	.	.	16e\LL	.	8ee\	.	8gg\	.	.	.	.	(4gg\	fe-	.	.
16D\	.	.	16f\	.	.	.	.	.	.	.	.	.	.	.	.
!	!	!	!	!	!LO:TX:t=P:problem=skreślone dwa takty	!	!	!	!	!	!	!	!	!	!
16E\	.	.	16g\	.	8ee\J	.	8gg\J	.	.	.	.	.	.	.	.
16F\JJ	.	.	16a\JJ	.	.	.	.	.	.	.	.	.	.	.	.
!	!	!	!	!	!LO:LB:g=original	!	!	!	!	!	!	!	!	!	!
=57	=57	=57	=57	=57	=57	=57	=57	=57	=57	=57	=57	=57	=57	=57	=57
!LO:TX:t=P:problem=mixed beam	!	!	!	!	!	!	!	!	!	!	!	!	!	!	!
8G\L	7	.	8B/L	.	8dd\L	.	8ff\L	.	2ryy	2ryy	2ryy	16ff\LL)	.	2ryy	2ryy
.	.	.	.	.	.	.	.	.	.	.	.	16ee|>\	.	.	.
8GG/	.	.	8B/	.	8dd\	.	8ff\	.	.	.	.	16dd|>\	.	.	.
.	.	.	.	.	.	.	.	.	.	.	.	16cc|>\JJ	.	.	.
8GG/	.	.	8B/	.	8dd\	.	8ff\	.	.	.	.	16b|>\LL	.	.	.
.	.	.	.	.	.	.	.	.	.	.	.	16a|>\	.	.	.
8GG/J	.	.	8B/J	.	8dd\J	.	8ff\J	.	.	.	.	16g|>\	.	.	.
.	.	.	.	.	.	.	.	.	.	.	.	16f|>\JJ	.	.	.
=58	=58	=58	=58	=58	=58	=58	=58	=58	=58	=58	=58	=58	=58	=58	=58
8C/L	.	.	8G/L	.	8cc\L	.	8ee\L	.	2ryy	2ryy	2ryy	16e/LL	.	2ryy	2ryy
.	.	.	.	.	.	.	.	.	.	.	.	16f/JJ	.	.	.
8C/J	.	.	8G/J	.	8cc\	.	8ee\	.	.	.	.	8g/	-cit	.	.
16C\LL	.	.	16e\LL	.	8ee\	.	8gg\	.	.	.	.	(4gg\	fe-	.	.
16D\	.	.	16f\	.	.	.	.	.	.	.	.	.	.	.	.
16E\	.	.	16g\	.	8ee\J	.	8gg\J	.	.	.	.	.	.	.	.
16F\JJ	.	.	16a\JJ	.	.	.	.	.	.	.	.	.	.	.	.
=59	=59	=59	=59	=59	=59	=59	=59	=59	=59	=59	=59	=59	=59	=59	=59
!LO:TX:t=P:problem=mixed beam	!	!	!	!	!	!	!	!	!	!	!	!	!	!	!
8G\L	7	.	8B/L	.	8dd\L	.	8ff\L	.	2ryy	2ryy	2ryy	16ff\LL)	.	2ryy	2ryy
.	.	.	.	.	.	.	.	.	.	.	.	16ee|>\	.	.	.
8GG/	.	.	8B/	.	8dd\	.	8ff\	.	.	.	.	16dd|>\	.	.	.
.	.	.	.	.	.	.	.	.	.	.	.	16cc|>\JJ	.	.	.
8GG/	.	.	8B/	.	8dd\	.	8ff\	.	.	.	.	16b\LL	.	.	.
.	.	.	.	.	.	.	.	.	.	.	.	16a\JJ	.	.	.
8GG/J	.	.	8B/J	.	8dd\J	.	8ff\J	.	.	.	.	(16g/LL	-cit	.	.
.	.	.	.	.	.	.	.	.	.	.	.	16f/JJ)	.	.	.
!	!	!	!LO:LB:g=original	!	!	!	!	!	!	!	!	!	!	!	!
=60	=60	=60	=60	=60	=60	=60	=60	=60	=60	=60	=60	=60	=60	=60	=60
!	!	!	!LO:TX:t=P:problem=mixed beam	!	!	!	!	!	!	!	!	!	!	!	!
8C/L	.	.	8G/L	.	8cc\L	.	8ee\L	.	2ryy	2ryy	2ryy	(16e/LL	ma-	2ryy	2ryy
.	.	.	.	.	.	.	.	.	.	.	.	16d/JJ)	.	.	.
8C/	.	.	8g\	.	16cc\L	.	16ee\L	.	.	.	.	8c/	-gna	.	.
.	.	.	.	.	16dd\JJ	.	16ff\JJ	.	.	.	.	.	.	.	.
8C/	.	.	8g\	.	8ee\L	.	8gg\L	.	.	.	.	4gg\	qui	.	.
8C/J	.	.	8g\J	.	8ee\J	.	8gg\J	.	.	.	.	.	.	.	.
!	!	!	!	!	!	!	!LO:LB:g=original	!	!	!	!	!LO:LB:g=original	!	!	!
=61	=61	=61	=61	=61	=61	=61	=61	=61	=61	=61	=61	=61	=61	=61	=61
.	.	.	.	.	.	.	.	.	.	.	.	8qqgg/	.	.	.
8F\L	6	.	8a\L	.	8dd\L	.	8ff\L	.	2ryy	2ryy	2ryy	4ff\	po-	2ryy	2ryy
8F\	.	.	8a\	.	8dd\	.	8ff\	.	.	.	.	.	.	.	.
8F#X\	7 5	.	8a\	.	8cc\	.	8ee\	.	.	.	.	4eet\	-tens	.	.
8F#\J	.	.	8a\J	.	8cc\J	.	8ee\J	.	.	.	.	.	.	.	.
!LO:LB:g=original	!	!	!	!	!	!	!	!	!	!	!	!	!	!	!
=62	=62	=62	=62	=62	=62	=62	=62	=62	=62	=62	=62	=62	=62	=62	=62
!LO:TX:t=P:problem=mixed beam	!	!	!	!	!	!	!	!	!	!	!	!	!	!	!
.	.	.	.	.	8qqcc/	.	8qqee/	.	.	.	.	8qqee/	.	.	.
8G\L	.	.	8d\L	.	4b/	.	4dd\	.	2ryy	2ryy	2ryy	4dd\	eſt	2ryy	2ryy
8GG/J	.	.	8g\J	.	.	.	.	.	.	.	.	.	.	.	.
!	!	!LO:DY:b:t=for	!	!	!	!	!	!	!	!	!	!	!	!	!
16G\LL	.	f	16B/LL	.	4r	.	4r	.	.	.	.	4r	.	.	.
16Fn\	.	.	16A/	.	.	.	.	.	.	.	.	.	.	.	.
16E\	.	.	16G/	.	.	.	.	.	.	.	.	.	.	.	.
16D\JJ	.	.	16F/JJ	.	.	.	.	.	.	.	.	.	.	.	.
=63	=63	=63	=63	=63	=63	=63	=63	=63	=63	=63	=63	=63	=63	=63	=63
!	!	!LO:DY:b:t=pia&colon;	!	!	!	!	!	!	!	!	!	!	!	!	!
8E\L	6	p	8G/L	.	8c/L	.	8r	.	2ryy	2ryy	2ryy	(16g\LL	et	2ryy	2ryy
.	.	.	.	.	.	.	.	.	.	.	.	16cc\)	.	.	.
8E\	.	.	8G/	.	8c/	.	8g\L	.	.	.	.	16b\	.	.	.
.	.	.	.	.	.	.	.	.	.	.	.	16cc\JJ	.	.	.
8E\	.	.	8G/	.	8c/	.	8cc\	.	.	.	.	16dd\LL	.	.	.
.	.	.	.	.	.	.	.	.	.	.	.	16cc\	.	.	.
8E\J	.	.	8G/J	.	8c/J	.	8ee\J	.	.	.	.	16b\	.	.	.
.	.	.	.	.	.	.	.	.	.	.	.	16cc\JJ	.	.	.
=64	=64	=64	=64	=64	=64	=64	=64	=64	=64	=64	=64	=64	=64	=64	=64
8F\L	.	.	8A/L	.	8c/L	.	4r	.	2ryy	2ryy	2ryy	(8g#X\L	.	2ryy	2ryy
8F\	.	.	8A/	.	8c/	.	.	.	.	.	.	8a\J)	.	.	.
8F\	.	.	8A/	.	8c/	.	(8g#X/L	.	.	.	.	4r	.	.	.
8F\J	.	.	8A/J	.	8c/J	.	8a/J)	.	.	.	.	.	.	.	.
=65	=65	=65	=65	=65	=65	=65	=65	=65	=65	=65	=65	=65	=65	=65	=65
8E\L	6	.	8G/L	.	8c/L	.	4r	.	2ryy	2ryy	2ryy	(8b\L	.	2ryy	2ryy
8E\	.	.	8G/	.	8c/	.	.	.	.	.	.	8cc\J)	.	.	.
8E\	.	.	8G/	.	8c/	.	(8b\L	.	.	.	.	4r	.	.	.
8E\J	.	.	8G/J	.	8c/J	.	8cc\J)	.	.	.	.	.	.	.	.
!	!	!	!	!	!LO:LB:g=original	!	!	!	!	!	!	!	!	!	!
=66	=66	=66	=66	=66	=66	=66	=66	=66	=66	=66	=66	=66	=66	=66	=66
8F\L	.	.	8A/L	.	8c/L	.	4r	.	2ryy	2ryy	2ryy	(8g#X/L	.	2ryy	2ryy
8F\	.	.	8A/	.	8c/	.	.	.	.	.	.	8a/J)	.	.	.
8F\	.	.	8A/	.	8c/	.	(8g#X/L	.	.	.	.	4r	.	.	.
8F\J	.	.	8A/J	.	8c/J	.	8a/J)	.	.	.	.	.	.	.	.
=67	=67	=67	=67	=67	=67	=67	=67	=67	=67	=67	=67	=67	=67	=67	=67
8F#X\L	6	.	8A/L	.	8d/L	.	8r	.	2ryy	2ryy	2ryy	(16a\LL	.	2ryy	2ryy
.	.	.	.	.	.	.	.	.	.	.	.	16dd\)	.	.	.
8F#\	.	.	8A/	.	8d/	.	8a\L	.	.	.	.	16cc#X\	.	.	.
.	.	.	.	.	.	.	.	.	.	.	.	16dd\JJ	.	.	.
8F#\	.	.	8A/	.	8d/	.	8dd\	.	.	.	.	(16ee\LL	.	.	.
.	.	.	.	.	.	.	.	.	.	.	.	16dd\)	.	.	.
8F#\J	.	.	8A/J	.	8d/J	.	8ff#X\J	.	.	.	.	16cc#X\	.	.	.
.	.	.	.	.	.	.	.	.	.	.	.	16dd\JJ	.	.	.
=68	=68	=68	=68	=68	=68	=68	=68	=68	=68	=68	=68	=68	=68	=68	=68
8G\L	.	.	8B/L	.	8d/L	.	4r	.	2ryy	2ryy	2ryy	(8a#X\L	.	2ryy	2ryy
8G\	.	.	8B/	.	8d/	.	.	.	.	.	.	8b\J)	.	.	.
8G\	.	.	8B/	.	8d/	.	(8a#X/L	.	.	.	.	4r	.	.	.
8G\J	.	.	8B/J	.	8d/J	.	8b/J)	.	.	.	.	.	.	.	.
=69	=69	=69	=69	=69	=69	=69	=69	=69	=69	=69	=69	=69	=69	=69	=69
8F#X\L	6	.	8A/L	.	8d/L	.	4r	.	2ryy	2ryy	2ryy	(8cc#X\L	.	2ryy	2ryy
8F#\	.	.	8A/	.	8d/	.	.	.	.	.	.	8dd\J)	.	.	.
8F#\	.	.	8A/	.	8d/	.	(8cc#X\L	.	.	.	.	4r	.	.	.
8F#\J	.	.	8A/J	.	8d/J	.	8dd\J)	.	.	.	.	.	.	.	.
=70	=70	=70	=70	=70	=70	=70	=70	=70	=70	=70	=70	=70	=70	=70	=70
8G\L	.	.	8B/L	.	8d/L	.	4r	.	2ryy	2ryy	2ryy	(8a#X\L	.	2ryy	2ryy
8G\	.	.	8B/	.	8d/	.	.	.	.	.	.	8b\J)	.	.	.
8G\	.	.	8B/	.	8d/	.	8a#X/L	.	.	.	.	4r	.	.	.
8G\J	.	.	8B/J	.	8d/J	.	8b/J	.	.	.	.	.	.	.	.
!	!	!	!	!	!	!	!	!	!	!	!	!LO:LB:g=original	!	!	!
=71	=71	=71	=71	=71	=71	=71	=71	=71	=71	=71	=71	=71	=71	=71	=71
8B\L	6	.	8d\L	.	8g/L	.	8r	.	2ryy	2ryy	2ryy	(16dd\LL	.	2ryy	2ryy
.	.	.	.	.	.	.	.	.	.	.	.	16gg\)	.	.	.
8B\	.	.	8d\	.	8g/	.	8dd\L	.	.	.	.	16ff#X\	.	.	.
.	.	.	.	.	.	.	.	.	.	.	.	16gg\JJ	.	.	.
8B\	.	.	8d\	.	8g/	.	8gg\	.	.	.	.	(16aa\LL	.	.	.
.	.	.	.	.	.	.	.	.	.	.	.	16gg\)	.	.	.
8B\J	.	.	8d\J	.	8g/J	.	8bb\J	.	.	.	.	16ff#\	.	.	.
.	.	.	.	.	.	.	.	.	.	.	.	16gg\JJ	.	.	.
=72	=72	=72	=72	=72	=72	=72	=72	=72	=72	=72	=72	=72	=72	=72	=72
8c\L	.	.	8e\L	.	8g/L	.	4r	.	2ryy	2ryy	2ryy	(8dd#X\L	.	2ryy	2ryy
8c\	.	.	8e\	.	8g/	.	.	.	.	.	.	8ee\J)	.	.	.
8c\	.	.	8e\	.	8g/	.	(8dd#X\L	.	.	.	.	4r	.	.	.
8c\J	.	.	8e\J	.	8g/J	.	8ee\J)	.	.	.	.	.	.	.	.
=73	=73	=73	=73	=73	=73	=73	=73	=73	=73	=73	=73	=73	=73	=73	=73
!LO:TX:t=P:problem=mixed beam	!	!	!	!	!	!	!	!	!	!	!	!	!	!	!
8B\L	6	.	8d\L	.	8g/L	.	4r	.	2ryy	2ryy	2ryy	(8ff#X\L	.	2ryy	2ryy
8BB/	.	.	8d\	.	8g/	.	.	.	.	.	.	8gg\J)	.	.	.
8BB/	.	.	8d\	.	8g/	.	(8ff#X\L	.	.	.	.	4r	.	.	.
8BB/J	.	.	8d\J	.	8g/J	.	8gg\J)	.	.	.	.	.	.	.	.
!	!	!	!	!	!	!	!LO:LB:g=original	!	!	!	!	!	!	!	!
=74	=74	=74	=74	=74	=74	=74	=74	=74	=74	=74	=74	=74	=74	=74	=74
8C/L	.	.	8e\L	.	8g/L	.	4r	.	2ryy	2ryy	2ryy	(8dd#X\L	.	2ryy	2ryy
8C/	.	.	8e\	.	8g/	.	.	.	.	.	.	8ee\J)	.	.	.
8C/	.	.	8e\	.	8g/	.	(8dd#X\L	.	.	.	.	4r	.	.	.
8C/J	.	.	8e\J	.	8g/J	.	8ee\J)	.	.	.	.	.	.	.	.
!LO:LB:g=original	!	!	!LO:LB:g=original	!	!	!	!	!	!	!	!	!	!	!	!
=75	=75	=75	=75	=75	=75	=75	=75	=75	=75	=75	=75	=75	=75	=75	=75
8F\L	.	.	2r	.	2r	.	2r	.	2ryy	2ryy	2ryy	8r	.	2ryy	2ryy
8F\	.	.	.	.	.	.	.	.	.	.	.	8a\	et	.	.
8D\	.	.	.	.	.	.	.	.	.	.	.	8ff\	San-	.	.
8F\J	.	.	.	.	.	.	.	.	.	.	.	8dd\	-ctum	.	.
=76	=76	=76	=76	=76	=76	=76	=76	=76	=76	=76	=76	=76	=76	=76	=76
.	.	.	.	.	.	.	.	.	.	.	.	8qqcc/	.	.	.
8r	.	.	8r	.	8r	.	8r	.	2ryy	2ryy	2ryy	4b\	No-	2ryy	2ryy
!	!	!	!LO:TX:t=P:problem=mixed beam	!	!	!	!	!	!	!	!	!	!	!	!
8G\L	.	.	8g\L	.	8b\L	.	8dd\L	.	.	.	.	.	.	.	.
.	.	.	.	.	.	.	.	.	.	.	.	8qqb/	.	.	.
8E\	6	.	8G/	.	8cc\	.	8ee\	.	.	.	.	4cc\	-men	.	.
8C\J	.	.	8g\J	.	8ee\J	.	8gg\J	.	.	.	.	.	.	.	.
=77	=77	=77	=77	=77	=77	=77	=77	=77	=77	=77	=77	=77	=77	=77	=77
8F\L	.	.	2r	.	2r	.	2r	.	2ryy	2ryy	2ryy	8r	.	2ryy	2ryy
8F\	.	.	.	.	.	.	.	.	.	.	.	8a\	et	.	.
8D\	.	.	.	.	.	.	.	.	.	.	.	(16ff\LL	San-	.	.
.	.	.	.	.	.	.	.	.	.	.	.	16aa\JJ)	.	.	.
8F\J	.	.	.	.	.	.	.	.	.	.	.	(16dd\LL	-ctu(m)	.	.
.	.	.	.	.	.	.	.	.	.	.	.	16ff\JJ)	.	.	.
=78	=78	=78	=78	=78	=78	=78	=78	=78	=78	=78	=78	=78	=78	=78	=78
.	.	.	.	.	.	.	.	.	.	.	.	8qqcc/	.	.	.
8r	.	.	8r	.	8r	.	8r	.	2ryy	2ryy	2ryy	4b\	no-	2ryy	2ryy
!	!	!	!LO:TX:t=P:problem=mixed beam	!	!	!	!	!	!	!	!	!	!	!	!
8G\L	.	.	8g\L	.	8b\L	.	8dd\L	.	.	.	.	.	.	.	.
.	.	.	.	.	.	.	.	.	.	.	.	8qqb/	.	.	.
8E\	6	.	8G/	.	8cc\	.	8ee\	.	.	.	.	4cc\	-men	.	.
8C\J	.	.	8g\J	.	8ee\J	.	8gg\J	.	.	.	.	.	.	.	.
!	!	!	!	!	!LO:LB:g=original	!	!	!	!	!	!	!	!	!	!
=79	=79	=79	=79	=79	=79	=79	=79	=79	=79	=79	=79	=79	=79	=79	=79
.	.	.	.	.	8qqee/	.	8qqgg/	.	.	.	.	.	.	.	.
*	*	*	*	*	*2\right	*	*2\right	*	*	*	*	*	*	*	*
!LO:TX:t=P:problem=mixed beam	!	!	!	!	!	!	!	!	!	!	!	!	!	!	!
8F\L	6	.	8a\L	.	2ddT\	.	2ffT\	.	2ryy	2ryy	2ryy	4.dd\	no-	2ryy	2ryy
8D\	.	.	8a\	.	.	.	.	.	.	.	.	.	.	.	.
8G\	.	.	8b\	.	.	.	.	.	.	.	.	.	.	.	.
8GG/J	.	.	8b\J	.	.	.	.	.	.	.	.	(16ee\LL	-men	.	.
.	.	.	.	.	.	.	.	.	.	.	.	16ff\JJ)	.	.	.
!	!	!	!	!	!	!	!	!	!	!	!	!LO:LB:g=original	!	!	!
=80	=80	=80	=80	=80	=80	=80	=80	=80	=80	=80	=80	=80	=80	=80	=80
4C/	.	.	4g\	.	8cc\L	.	8ee\L	.	2ryy	2ryy	2ryy	(16ee\LL	e-	2ryy	2ryy
.	.	.	.	.	.	.	.	.	.	.	.	16cc\)	.	.	.
.	.	.	.	.	8dd\	.	8ff\	.	.	.	.	16ff\	.	.	.
.	.	.	.	.	.	.	.	.	.	.	.	16dd\JJ	.	.	.
8r	.	.	8r	.	8ee\	.	8gg\	.	.	.	.	16gg\LL	.	.	.
.	.	.	.	.	.	.	.	.	.	.	.	16ee\	.	.	.
8F\	6 5	.	8a\	.	8dd\J	.	8ff\J	.	.	.	.	16dd\	.	.	.
.	.	.	.	.	.	.	.	.	.	.	.	16cc\JJ	.	.	.
=81	=81	=81	=81	=81	=81	=81	=81	=81	=81	=81	=81	=81	=81	=81	=81
!LO:TX:t=P:problem=mixed beam	!	!	!	!	!	!	!	!	!	!	!	!	!	!	!
8G\L	6 4	.	8g\L	.	8cc\L	.	8ee\L	.	2ryy	2ryy	2ryy	4g/	.	2ryy	2ryy
8G\	.	.	8g\	.	8cc\	.	8ee\	.	.	.	.	.	.	.	.
8GG/	5 3	.	8g\	.	8b\	.	8dd\	.	.	.	.	4ddT\	.	.	.
8GG/J	.	.	8g\J	.	8b\J	.	8dd\J	.	.	.	.	.	.	.	.
=82	=82	=82	=82	=82	=82	=82	=82	=82	=82	=82	=82	=82	=82	=82	=82
8C/L	.	.	8e\L	.	8cc\L	.	8ee\L	.	2ryy	2ryy	2ryy	4cc\	-jus	2ryy	2ryy
16E/L	.	.	16g\L	.	16cc\L	.	16ee\L	.	.	.	.	.	.	.	.
16D/JJ	.	.	16f\JJ	.	16dd\JJ	.	16ff\JJ	.	.	.	.	.	.	.	.
8C/L	.	.	8e\L	.	8ee\L	.	8gg\L	.	.	.	.	4r	.	.	.
8C/J	.	.	8g\J	.	8cc\J	.	8ee\J	.	.	.	.	.	.	.	.
=83	=83	=83	=83	=83	=83	=83	=83	=83	=83	=83	=83	=83	=83	=83	=83
.	.	.	.	.	8qqee/	.	8qqgg/	.	.	.	.	.	.	.	.
8BB/L	6 5	.	8g\L	.	2ddT\	.	2ffT\	.	2ryy	2ryy	2ryy	4.dd\	San-	2ryy	2ryy
8D/J	.	.	8g\	.	.	.	.	.	.	.	.	.	.	.	.
8GG/L	.	.	8g\	.	.	.	.	.	.	.	.	.	.	.	.
8BB/J	.	.	8g\J	.	.	.	.	.	.	.	.	(16ee\LL	-ctu(m)	.	.
.	.	.	.	.	.	.	.	.	.	.	.	16ff\JJ)	.	.	.
=84	=84	=84	=84	=84	=84	=84	=84	=84	=84	=84	=84	=84	=84	=84	=84
4C/	.	.	4g\	.	8cc\L	.	8ee\L	.	2ryy	2ryy	2ryy	16ee\LL	no-	2ryy	2ryy
.	.	.	.	.	.	.	.	.	.	.	.	16cc\	.	.	.
.	.	.	.	.	8dd\	.	8ff\	.	.	.	.	16ff\	.	.	.
.	.	.	.	.	.	.	.	.	.	.	.	16dd\JJ	.	.	.
8r	.	.	8r	.	8ee\	.	8gg\	.	.	.	.	16gg\LL	.	.	.
.	.	.	.	.	.	.	.	.	.	.	.	16ee\JJ	.	.	.
8F\	6	.	8a\	.	8dd\J	.	8ff\J	.	.	.	.	(16dd\LL	-men	.	.
.	.	.	.	.	.	.	.	.	.	.	.	16cc\JJ)	.	.	.
=85	=85	=85	=85	=85	=85	=85	=85	=85	=85	=85	=85	=85	=85	=85	=85
!LO:TX:t=P:problem=mixed beam	!	!	!	!	!	!	!	!	!	!	!	!	!	!	!
8G\L	6 4	.	8g\L	.	8cc\L	.	8ee\L	.	2ryy	2ryy	2ryy	4g/	e-	2ryy	2ryy
8G\	.	.	8g\	.	8cc\	.	8ee\	.	.	.	.	.	.	.	.
8GG/	7 3	.	8g\	.	8b\	.	8dd\	.	.	.	.	4ddT\	.	.	.
8GG/J	.	.	8g\J	.	8b\J	.	8dd\J	.	.	.	.	.	.	.	.
*custos:C	*	*	*	*	*	*	*	*	*	*	*	*	*	*	*
!LO:LB:g=original	!	!	!	!	!	!	!	!	!	!	!	!	!	!	!
=86	=86	=86	=86	=86	=86	=86	=86	=86	=86	=86	=86	=86	=86	=86	=86
!	!	!LO:DY:b:t=for	!	!LO:DY:b:t=for	!	!LO:DY:b:t=for	!	!LO:DY:b:t=for	!	!	!	!	!	!	!
8C\L	.	f	8g\L	f	8.ccT\L	f	8.eet\L	f	2ryy	2ryy	2ryy	4cc\	-jus	2ryy	2ryy
8c\	.	.	8g\	.	.	.	.	.	.	.	.	.	.	.	.
.	.	.	.	.	32b\LL	.	(32dd\LL	.	.	.	.	.	.	.	.
.	.	.	.	.	32cc\JJJ	.	32ee\JJJ)	.	.	.	.	.	.	.	.
8B\	.	.	8g\	.	4dd|>\	.	4ff\	.	.	.	.	4r	.	.	.
8G\J	.	.	8b\J	.	.	.	.	.	.	.	.	.	.	.	.
=87	=87	=87	=87	=87	=87	=87	=87	=87	=87	=87	=87	=87	=87	=87	=87
8C\L	.	.	8g\L	.	8.ccT\L	.	8.eet\L	.	2ryy	2ryy	2ryy	0r	.	2ryy	2ryy
8c\	.	.	8g\	.	.	.	.	.	.	.	.	.	.	.	.
.	.	.	.	.	32b\LL	.	(32dd\LL	.	.	.	.	.	.	.	.
.	.	.	.	.	32cc\JJJ	.	32ee\JJJ)	.	.	.	.	.	.	.	.
8B\	.	.	8g\	.	4dd|>\	.	4ff\	.	.	.	.	.	.	.	.
8G\J	.	.	8b\J	.	.	.	.	.	.	.	.	.	.	.	.
!	!	!	!	!	!	!	!LO:LB:g=original	!	!	!	!	!	!	!	!
=88	=88	=88	=88	=88	=88	=88	=88	=88	=88	=88	=88	=88	=88	=88	=88
8c\L	.	.	8g\L	.	8cc\	.	8ee|>\L	.	2ryy	2ryy	2ryy	.	.	2ryy	2ryy
8E\	.	.	8g\	.	4cc\	.	(16gg\L	.	.	.	.	.	.	.	.
.	.	.	.	.	.	.	16cc\JJ)	.	.	.	.	.	.	.	.
8F\	.	.	8a\	.	.	.	8dd|>\L	.	.	.	.	.	.	.	.
8G\J	.	.	8g\J	.	8b\	.	(16ff\L	.	.	.	.	.	.	.	.
.	.	.	.	.	.	.	16b\JJ)	.	.	.	.	.	.	.	.
=89	=89	=89	=89	=89	=89	=89	=89	=89	=89	=89	=89	=89	=89	=89	=89
!	!	!LO:DY:b:t=pia&colon;	!	!LO:DY:b:t=po.	!	!LO:DY:b:t=pia	!	!LO:DY:b:t=po.	!	!	!	!	!	!	!
8C\L	.	p	8g\L	p	8.ccT\L	p	8.eet\L	p	2ryy	2ryy	2ryy	.	.	2ryy	2ryy
8c\	.	.	8g\	.	.	.	.	.	.	.	.	.	.	.	.
.	.	.	.	.	32b\LL	.	32dd\LL	.	.	.	.	.	.	.	.
.	.	.	.	.	32cc\JJJ	.	32ee\JJJ	.	.	.	.	.	.	.	.
8B\	.	.	8g\	.	4dd|>\	.	4ff|>\	.	.	.	.	.	.	.	.
8G\J	.	.	8b\J	.	.	.	.	.	.	.	.	.	.	.	.
=90	=90	=90	=90	=90	=90	=90	=90	=90	=90	=90	=90	=90	=90	=90	=90
8C\L	.	.	8g\L	.	8.ccT\L	.	8.eet\L	.	2ryy	2ryy	2ryy	.	.	2ryy	2ryy
8c\	.	.	8g\	.	.	.	.	.	.	.	.	.	.	.	.
.	.	.	.	.	32b\LL	.	32dd\LL	.	.	.	.	.	.	.	.
.	.	.	.	.	32cc\JJJ	.	32ee\JJJ	.	.	.	.	.	.	.	.
8B\	.	.	8g\	.	4dd|>\	.	4ff|>\	.	.	.	.	.	.	.	.
8G\J	.	.	8b\J	.	.	.	.	.	.	.	.	.	.	.	.
=91	=91	=91	=91	=91	=91	=91	=91	=91	=91	=91	=91	=91	=91	=91	=91
8c\L	.	.	8g\L	.	8cc\	.	8ee|>\L	.	2ryy	2ryy	2ryy	1r	.	2ryy	2ryy
8E\	.	.	8g\	.	4cc\	.	(16gg\L	.	.	.	.	.	.	.	.
.	.	.	.	.	.	.	16cc\JJ)	.	.	.	.	.	.	.	.
8F\	.	.	8a\	.	.	.	8dd|>\L	.	.	.	.	.	.	.	.
8G\J	.	.	8g\J	.	8bt\	.	(16ff\L	.	.	.	.	.	.	.	.
.	.	.	.	.	.	.	16b\JJ)	.	.	.	.	.	.	.	.
=92	=92	=92	=92	=92	=92	=92	=92	=92	=92	=92	=92	=92	=92	=92	=92
!	!	!LO:DY:b:t=for	!	!LO:DY:b:t=for	!	!LO:DY:b:t=for.	!	!LO:DY:b:t=for	!	!	!	!	!	!	!
4C/	.	f	4g\	f	8cc|>\L	f	8cc|>\L	f	2ryy	2ryy	2ryy	.	.	2ryy	2ryy
.	.	.	.	.	8g|>\J	.	8g|>\J	.	.	.	.	.	.	.	.
4r	.	.	4r	.	4c/	.	4c/	.	.	.	.	.	.	.	.
==	==	==	==;	==	==	==	==;	==	==	==	==	==;	==	==	==
*-	*-	*-	*-	*-	*-	*-	*-	*-	*-	*-	*-	*-	*-	*-	*-
!!!system-decoration: [(s1,s2)][(s3,s4,s5,s6)][(s7,s8,s9)]s10
!!!RDF**kern: < = below
!!!RDF**kern: > = above
!!!RDF**kern: | = vertical stroke
!!!ENC: Andrzej Gręziak
!!!END: 2022-03-28
!!!ENC: Marta Chmielewska
!!!END: 2022-03-29
!!!YEC: Copyright 2022 Narodowy Instytut Fryderyka Chopina (https://polishscores.org)
!!!YEM: License CC-BY-4.0 (https://creativecommons.org/licenses/by/4.0)
